dist/assets/img/sprite/icon-vk.svg

<svg xmlns="http://www.w3.org/2000/svg" preserveAspectRatio="xMidYMid" width="28.219" height="28.219" viewBox="0 0 28.219 28.219"><path d="M14.103 28.229c-7.795 0-14.114-6.319-14.114-14.114C-.011 6.32 6.308.001 14.103.001c7.795 0 14.114 6.319 14.114 14.114 0 7.795-6.319 14.114-14.114 14.114zm4.686-13.792c-.453-.491-1.059-.814-1.813-.974v-.064a2.64 2.64 0 001.233-1.029c.3-.465.449-.995.449-1.592 0-.516-.109-.971-.325-1.366a2.373 2.373 0 00-.982-.945 3.87 3.87 0 00-1.301-.428c-.462-.071-1.143-.104-2.04-.104H9.689v12.229h4.895c.85 0 1.547-.076 2.097-.23a4.309 4.309 0 001.517-.771c.39-.303.698-.681.928-1.141.23-.46.345-.995.345-1.604 0-.83-.227-1.49-.682-1.981zm-3.285 3.246c-.317.137-.631.21-.936.221-.306.012-.859.017-1.657.017h-.166v-3.062h.567c.546 0 .984.003 1.309.012.325.008.583.047.768.121.306.108.535.268.69.484.154.213.229.508.229.886 0 .294-.064.558-.193.791a1.22 1.22 0 01-.611.53zm-.614-5.105a1.81 1.81 0 01-.653.171c-.211.011-.581.016-1.105.016h-.387v-2.588h.213c.547 0 .959.004 1.237.012.277.008.516.056.717.146a.908.908 0 01.474.451c.101.207.152.41.152.608 0 .267-.048.503-.141.707-.092.202-.263.361-.507.477z" opacity=".6" fill-rule="evenodd"/></svg>

<svg xmlns="http://www.w3.org/2000/svg" xmlns:xlink="http://www.w3.org/1999/xlink" preserveAspectRatio="xMidYMid" width="28.219" height="28.219" viewBox="0 0 28.219 28.219">
  <defs>
    <style>
      .cls-1 {
        fill: #000;
        opacity: 0.6;
        fill-rule: evenodd;
      }
    </style>
  </defs>
  <path d="M14.103,28.229 C6.308,28.229 -0.011,21.910 -0.011,14.115 C-0.011,6.320 6.308,0.001 14.103,0.001 C21.898,0.001 28.217,6.320 28.217,14.115 C28.217,21.910 21.898,28.229 14.103,28.229 ZM18.789,14.437 C18.336,13.946 17.730,13.623 16.976,13.463 L16.976,13.399 C17.500,13.178 17.912,12.836 18.209,12.370 C18.509,11.905 18.658,11.375 18.658,10.778 C18.658,10.262 18.549,9.807 18.333,9.412 C18.117,9.020 17.789,8.703 17.351,8.467 C16.947,8.248 16.513,8.106 16.050,8.039 C15.588,7.968 14.907,7.935 14.010,7.935 L9.689,7.935 L9.689,20.164 L14.584,20.164 C15.434,20.164 16.131,20.088 16.681,19.934 C17.234,19.779 17.739,19.524 18.198,19.163 C18.588,18.860 18.896,18.482 19.126,18.022 C19.356,17.562 19.471,17.027 19.471,16.418 C19.471,15.588 19.244,14.928 18.789,14.437 ZM15.504,17.683 C15.187,17.820 14.873,17.893 14.568,17.904 C14.262,17.916 13.709,17.921 12.911,17.921 L12.745,17.921 L12.745,14.859 L13.312,14.859 C13.858,14.859 14.296,14.862 14.621,14.871 C14.946,14.879 15.204,14.918 15.389,14.992 C15.695,15.100 15.924,15.260 16.079,15.476 C16.233,15.689 16.308,15.984 16.308,16.362 C16.308,16.656 16.244,16.920 16.115,17.153 C15.986,17.386 15.784,17.562 15.504,17.683 ZM14.890,12.578 C14.666,12.681 14.447,12.737 14.237,12.749 C14.026,12.760 13.656,12.765 13.132,12.765 L12.745,12.765 L12.745,10.177 L12.958,10.177 C13.505,10.177 13.917,10.181 14.195,10.189 C14.472,10.197 14.711,10.245 14.912,10.335 C15.128,10.427 15.285,10.579 15.386,10.786 C15.487,10.993 15.538,11.196 15.538,11.394 C15.538,11.661 15.490,11.897 15.397,12.101 C15.305,12.303 15.134,12.462 14.890,12.578 Z" class="cls-1"/>
</svg>
